X: 46
T: No_40_Lame_Dance_Song_(b).krn
N: Derived from No_40_Lame_Dance_Song_(b).krn
%%abc-version 2.0
%%abcx-abcm2ps-target-version 5.9.1 (29 Sep 2008)
%%abc-creator hum2abc beta
%%abcx-conversion-date 2019/03/15 08:36:49
%%humdrum-veritas 76840286
%%humdrum-veritas-data 80279676
%%linebreak <none>
%%barnumbers 0
L: 1/16
M: 2/4
%%staves {1 2}
V: 1 clef=bass
V: 2 clef=bass
K: E
[V:1] [K:clef=bass][M:2/4]E4B,4 [I:setbarnb 2]| 
[V:2] [K:clef=bass][M:2/4]G,,4G,,4 | 
[V:1] E4B,G,G,G, | 
[V:2] G,,4G,,4 | 
[V:1] F,E,E,2 F,E,E,2 ||  
[V:2] z8 ||  
[V:1] [M:3/4]E,2E,2E,4z4 ||  
[V:2] [M:3/4]z12 ||  
[V:1] [M:2/4]E4B,4 | 
[V:2] [M:2/4]z8 | 
[V:1] E4B,G,G,G, | 
[V:2] z8 | 
[V:1] F,E,E,2 F,E,E,2 ||  
[V:2] z8 ||  
[V:1] [M:3/4]E,12 ||  
[V:2] [M:3/4]z12 ||  
[V:1] [M:2/4]G,G,3F,4 | 
[V:2] [M:2/4]z8 | 
[V:1] A,G,3 F,E,E,D, ||  
[V:2] z8 ||  
[V:1] [M:3/4]E,4B,,8 ||  
[V:2] [M:3/4]z12 ||  
[V:1] [M:2/4]F,E,3B,,4 | 
[V:2] [M:2/4]z8 | 
[V:1] F,E,3E,4 | 
[V:2] z8 | 
[V:1] B,,4B,,2B,,2 | 
[V:2] z8 | 
[V:1] B,,8 :|]  
[V:2] z8 :|]  



% FRACTION = 0.999634BUT SHOULD BE 0
